apps/frontend/src/icons/ICON_cross_delite_error.svg

<svg width="24" height="24" viewBox="0 0 24 24" fill="none" xmlns="http://www.w3.org/2000/svg">
<path d="M12.0469 21.6309C6.70316 21.6309 2.35645 17.2837 2.35645 11.9405C2.35645 6.59719 6.70316 2.25 12.0469 2.25C17.3907 2.25 21.7374 6.59719 21.7374 11.9405C21.7374 17.2837 17.3907 21.6309 12.0469 21.6309ZM12.0469 3.65625C7.47895 3.65625 3.7627 7.3725 3.7627 11.9405C3.7627 16.5084 7.47895 20.2247 12.0469 20.2247C16.6149 20.2247 20.3311 16.5084 20.3311 11.9405C20.3311 7.3725 16.6149 3.65625 12.0469 3.65625Z" fill="#DBE2E6"/>
<path d="M16.0744 16.7813C15.982 16.7813 15.8906 16.7631 15.8052 16.7278C15.7199 16.6925 15.6424 16.6408 15.577 16.5755L7.52203 8.52C7.45487 8.45514 7.40131 8.37755 7.36446 8.29177C7.32761 8.20599 7.30821 8.11372 7.3074 8.02036C7.30659 7.927 7.32438 7.83441 7.35973 7.748C7.39509 7.66159 7.44729 7.58309 7.51331 7.51707C7.57933 7.45105 7.65784 7.39884 7.74425 7.36349C7.83066 7.32813 7.92325 7.31034 8.01661 7.31115C8.10997 7.31196 8.20223 7.33136 8.28802 7.36821C8.3738 7.40506 8.45139 7.45863 8.51625 7.52578L16.5717 15.5813C16.67 15.6796 16.7368 15.8049 16.7639 15.9412C16.791 16.0776 16.777 16.2189 16.7238 16.3473C16.6705 16.4758 16.5804 16.5855 16.4649 16.6628C16.3493 16.74 16.2134 16.7812 16.0744 16.7813Z" fill="#DBE2E6"/>
<path d="M8.01891 16.7812C7.87994 16.7811 7.74412 16.7398 7.6286 16.6625C7.51309 16.5853 7.42306 16.4755 7.36989 16.3471C7.31673 16.2187 7.3028 16.0774 7.32988 15.9411C7.35696 15.8048 7.42383 15.6796 7.52204 15.5812L15.577 7.52578C15.7089 7.39387 15.8877 7.31975 16.0742 7.3197C16.2607 7.31966 16.4396 7.3937 16.5715 7.52554C16.7034 7.65738 16.7775 7.83622 16.7776 8.02272C16.7776 8.20922 16.7036 8.38809 16.5717 8.52L8.51626 16.5755C8.45093 16.6407 8.37339 16.6925 8.28805 16.7278C8.20272 16.7631 8.11126 16.7813 8.01891 16.7812Z" fill="#DBE2E6"/>
</svg>

<svg xmlns="http://www.w3.org/2000/svg" width="24" height="24" fill="none"><path fill="#DBE2E6" d="M12.047 21.63c-5.344 0-9.69-4.346-9.69-9.69s4.346-9.69 9.69-9.69 9.69 4.347 9.69 9.69c0 5.344-4.346 9.69-9.69 9.69m0-17.974c-4.568 0-8.284 3.716-8.284 8.285 0 4.567 3.716 8.284 8.284 8.284s8.284-3.717 8.284-8.285-3.716-8.284-8.284-8.284"/><path fill="#DBE2E6" d="M16.074 16.781a.7.7 0 0 1-.497-.205L7.522 8.52a.703.703 0 1 1 .994-.994l8.056 8.055a.703.703 0 0 1-.498 1.2"/><path fill="#DBE2E6" d="M8.019 16.781a.703.703 0 0 1-.497-1.2l8.055-8.055a.703.703 0 0 1 .995.994l-8.056 8.056a.7.7 0 0 1-.497.205"/></svg>
